lib/assets/icons/svg/outlined-action-share.svg

<svg xmlns="http://www.w3.org/2000/svg" viewBox="0 0 24 24"><path d="M7.707 14.84c-2.179-.008-3.532-2.371-2.436-4.254.963-1.654 3.183-1.847 4.442-.586l3.9-1.882a2.803 2.803 0 0 1 .18-2.449c1.086-1.897 3.819-1.907 4.918-.018a2.84 2.84 0 0 1-2.444 4.269 2.8 2.8 0 0 1-2.127-.945l-3.851 1.854a2.829 2.829 0 0 1 .023 2.312l3.84 1.893c1.236-1.408 3.582-1.258 4.58.457a2.84 2.84 0 0 1-2.444 4.269c-2.044.007-3.379-2.056-2.655-3.875l-3.877-1.912a2.82 2.82 0 0 1-2.049.867zm0-4.66c-1.409.008-2.281 1.537-1.57 2.754.711 1.216 2.472 1.206 3.17-.018a1.83 1.83 0 0 0-1.6-2.736zm8.56-4.93c-1.416-.008-2.31 1.521-1.608 2.751.701 1.231 2.472 1.24 3.187.018.166-.285.253-.609.251-.939a1.83 1.83 0 0 0-1.83-1.83zm.021 9.84c-1.416-.008-2.31 1.521-1.608 2.751.701 1.231 2.472 1.24 3.187.018.166-.285.253-.609.251-.939a1.83 1.83 0 0 0-1.83-1.83z"/></svg>

<svg viewBox="0 0 24 24" xmlns="http://www.w3.org/2000/svg">
  <path  d="M 7.707 14.84 C 5.528 14.832 4.175 12.469 5.271 10.586 C 6.234 8.932 8.454 8.739 9.713 10 L 13.613 8.118 C 13.314 7.362 13.332 6.474 13.793 5.669 C 14.879 3.772 17.612 3.762 18.711 5.651 C 18.964 6.085 19.097 6.578 19.097 7.08 C 19.097 8.645 17.832 9.914 16.267 9.92 C 15.393 9.923 14.649 9.548 14.14 8.975 L 10.289 10.829 C 10.459 11.199 10.547 11.602 10.547 12.01 C 10.547 12.412 10.463 12.794 10.312 13.141 L 14.152 15.034 C 15.388 13.626 17.734 13.776 18.732 15.491 C 18.985 15.925 19.118 16.418 19.118 16.92 C 19.118 18.485 17.853 19.754 16.288 19.76 C 14.244 19.767 12.909 17.704 13.633 15.885 L 9.756 13.973 C 9.239 14.51 8.512 14.843 7.707 14.84 Z M 7.707 10.18 C 6.298 10.188 5.426 11.717 6.137 12.934 C 6.848 14.15 8.609 14.14 9.307 12.916 C 9.464 12.64 9.547 12.328 9.547 12.01 C 9.547 10.995 8.722 10.174 7.707 10.18 Z M 16.267 5.25 C 14.851 5.242 13.957 6.771 14.659 8.001 C 15.36 9.232 17.131 9.241 17.846 8.019 C 18.012 7.734 18.099 7.41 18.097 7.08 C 18.097 6.069 17.278 5.25 16.267 5.25 Z M 16.288 15.09 C 14.872 15.082 13.978 16.611 14.68 17.841 C 15.381 19.072 17.152 19.081 17.867 17.859 C 18.033 17.574 18.12 17.25 18.118 16.92 C 18.118 15.909 17.299 15.09 16.288 15.09 Z"/>
</svg>
